X:69
T:Hanoverian Camp. JJo8.069
%%VWML:JohnsonVol8-2184-p35-0
F:http://www.vwml.org/record/JohnsonVol8/2184/p35
Z:Transcribed by Simon Furey and Lewis Jones
Z:vmp.Simon Wilson 2013 www.village-music-project.org.uk
Z:Dance added by John Chambers 2017
N:The 2nd strain has initial but no final repeat; playing AAB would give 16 bars.
M:2/4
L:1/8
%Q:1/4=100
K:G
|:\
GG e/c/B/A/ | GG F/A/F/D/ |\
GG e/c/B/A/ | B/d/D/F/G2 :|\
|:\
GGgg | {c/}BA/G/ F/A/F/D/ |
GGgg | {c/}BA/G/ A>A |\
GG e/c/B/A/ | GG F/A/F/D/ |\
GG e/c/B/A/ | B/d/D/F/G2 |]
W: First and 2d Cu. Right hands
W:across half round, Left hands back
W:again. cross over and half figure.
W:foot it. and Right & Left at top.
W:
T:Mingotti's Maggot. JJo8.070
B:J.Johnson Choice Collection Vol 8 1758
N:This is version 2, for ABC software that understands voice overlays.
Z:vmp.Simon Wilson 2013 www.village-music-project.org.uk
Z:Dance added by John Chambers 2017
M:2/4
L:1/8
%Q:1/4=100
K:A
|:\
e/d/e/f/ ed | cAAB | caBd | caAf |\
e/d/e/f/ ed | cAag | fe fe/^d/ | e4 :|
|:\
B/c/B/c/ dc/B/&E4- | caa2 & [E2A,2]z2 |\
B/c/B/c/ dc/B/&E4- | cAAc & [E2A,2]z2 |\
B/c/B/c/ dc/B/&E4- | caaf & [E2A,2]z2 |\
e>f e/d/c/B/ | A2A,2 :|
W: First Cu. cast off, and Right hands across
W:round with the 3d Cu. cast up, & Left hands
W:across at top, cross over two Cu. lead up and
W:cast off whole figure top and Bottom. Hands
W:6 round. and Right and Left at top.
W:
